X:1
T:Schumann, SM
T:Schumann, SM
T:Mason & Webb’s Cantica Laudis, 1850
T:Public Domain Courtesy of the Cyber Hymnal™
C:Mason & Webb’s Cantica Laudis, 1850
Z:Public Domain
Z:Courtesy of the Cyber Hymnal™
%%score ( 1 2 ) ( 3 4 )
L:1/8
Q:1/4=115
M:4/4
K:Ab
V:1 treble 
V:2 treble 
V:3 bass 
V:4 bass 
V:1
 [CE]2 | [CA]2 E2 [EF]2 [DG]2 | [CA]6 [CA]2 | [Dd]2 [Ec]2 [FB]2 [FA]2 | (A4 G2) [EG]2 | %5
 [EA]2 E2 [EF]2 [DG]2 | [CA]2 [EB]2 [Ec]2 [_Ge]2 | [Fd]2 [FB]2 [EA]2 [DG]2 | [CA]6 |] %9
V:2
 x2 | x2 E2 x4 | x8 | x8 | E6 x2 | x2 E2 x4 | x8 | x8 | x6 |] %9
V:3
 [A,,A,]2 | [A,,A,]2 [C,A,]2 [D,A,]2 [B,,E,]2 | [A,,E,]6 [_G,A,]2 | %3
 [F,A,]2 [E,A,]2 [D,D]2 [=D,_C]2 | [E,B,]6 [E,B,]2 | [A,,C]2 [C,A,]2 [D,A,]2 [B,,B,]2 | %6
 [F,A,]2 [E,G,]2 A,2 [C,A,]2 | [D,B,]2 [D,D]2 [E,C]2 [E,B,]2 | [A,,A,]6 |] %9
V:4
 x2 | x8 | x8 | x8 | x8 | x8 | x4 A,2 x2 | x8 | x6 |] %9

